X:1
T:Kas a barc'h : A
E:12
Z:Roger Ngaret (94-95)
R:andro
C:Trad.
S:
A:Bretagne
M:4/4
L:1/16
K:G
Q:1/4=84
g2cd b2g2 abaf g2d2 | edef g2fg a2f2 d4 | \
d2gd b2g2 abaf g2d2 | edef g2fg a2f2 g4 ||
a2af a2a2 gfga f2d2 | abag f2d2 edef e4 | \
a2af a2a2 gfga f2d2 | abag f2d2 edef d4 |]
